X:24
T:18c. Silvermines
C:Larry Mallette
R:Hornpipe
M:C|
L:1/8
K:Em
"Hornpipe"
EAAB cBAG|EAAB cdef|~g2af gede|dcBA B3G|
EGBe dcBA|GBed cBAG|BdAB GEED|EFGF E4:|
efge dABd|BGGE DEGA|Beed efga|bagb a2ga|
bgeg dABd|BGGE DEGA|BdAB GEED|EFGF E4:|





